outputs/icons/action/build_round.svg

<svg width="1200" height="1200" viewBox="0 0 1200 1200" fill="none" xmlns="http://www.w3.org/2000/svg"><g clip-path="url(#clip0_223_1897)"><path d="M604.5 145.498C504 44.998 353.5 24.498 232.5 83.498L414 264.998C433.5 284.498 433.5 315.998 414 335.498L334.5 414.998C315 434.997 283.5 434.997 264 414.998L82.5 233.498C24 354.998 44.5 504.5 145 605C238 698 374 722.5 489.5 679L887.5 1077C939 1128.5 1022 1128.5 1073 1077C1124.5 1025.5 1124.5 942.5 1073 891.5L677 494.998C723 377.998 699 239.998 604.5 145.498Z" fill="black"/></g><defs><clipPath id="clip0_223_1897"><path width="24" fill="white" d="M0 0H1200V1200H0V0z"/></clipPath></defs></svg>

<svg xmlns="http://www.w3.org/2000/svg" width="1200" height="1200" fill="none"><g clip-path="url(#a)"><path fill="#000" d="M604.5 145.498c-100.5-100.5-251-121-372-62l181.5 181.5c19.5 19.5 19.5 51 0 70.5l-79.5 79.5c-19.5 19.999-51 19.999-70.5 0l-181.5-181.5C24 354.998 44.5 504.5 145 605c93 93 229 117.5 344.5 74l398 398c51.5 51.5 134.5 51.5 185.5 0 51.5-51.5 51.5-134.5 0-185.5L677 494.998c46-117 22-255-72.5-349.5"/></g><defs><clipPath id="a"><path fill="#fff" d="M0 0h1200v1200H0z"/></clipPath></defs></svg>
